client/src/assets/add_icon.svg

<svg width="21" height="21" viewBox="0 0 21 21" fill="none" xmlns="http://www.w3.org/2000/svg">
<path d="M12.8386 10.1039H10.1068M10.1068 10.1039H7.375M10.1068 10.1039V7.37207M10.1068 10.1039V12.8356" stroke="#1C274C" stroke-width="2" stroke-linecap="round"/>
<path d="M19.2119 10.106C19.2119 14.3985 19.2119 16.5449 17.8784 17.8784C16.5449 19.2119 14.3985 19.2119 10.106 19.2119C5.81337 19.2119 3.66707 19.2119 2.33354 17.8784C1 16.5449 1 14.3985 1 10.106C1 5.81337 1 3.66707 2.33354 2.33354C3.66707 1 5.81337 1 10.106 1C14.3985 1 16.5449 1 17.8784 2.33354C18.7651 3.22022 19.0622 4.46623 19.1617 6.46358" stroke="#1C274C" stroke-width="2" stroke-linecap="round"/>
</svg>

<?xml version="1.0" encoding="UTF-8"?>
<svg id="Layer_1" xmlns="http://www.w3.org/2000/svg" width="21" height="21" version="1.1" viewBox="0 0 21 21">
  <!-- Generator: Adobe Illustrator 29.8.1, SVG Export Plug-In . SVG Version: 2.1.1 Build 2)  -->
  <defs>
    <style>
      .st0 {
        fill: none;
        stroke: #2a2627;
        stroke-linecap: round;
        stroke-width: 2px;
      }
    </style>
  </defs>
  <path class="st0" d="M12.84,10.1h-2.73M10.11,10.1h-2.73M10.11,10.1v-2.73M10.11,10.1v2.73"/>
  <path class="st0" d="M19.21,10.11c0,4.29,0,6.44-1.33,7.77s-3.48,1.33-7.77,1.33-6.44,0-7.77-1.33c-1.33-1.33-1.33-3.48-1.33-7.77s0-6.44,1.33-7.77c1.33-1.33,3.48-1.33,7.77-1.33s6.44,0,7.77,1.33c.89.89,1.18,2.13,1.28,4.13"/>
</svg>
